X:0828
M:C|
L:1/8
Q:1/4=100
K:D
dc   |B2A2 G2F2|(G3/A//B//) A2 B2c2|d2e2 (fd) (gf)|{f}He4 gefd|c2BA gefd|c4   A2Bc|d2f2 e2a2|d4 z2|]

